X:11670
%14702
T:S\"akkij\"arven polka
R:Polka
O:Finland
M:4/4
K:Am
az ze d2c2|c2B2 BE^GB|eeed c2B2 \
|1 ABcB ABce :|2 ABcB A2z2 
%Error : No repeat expected, found ::
::
AB^cd e2a2|a2^gf gab2|e^f^ga b2c'2|b2a2 abc'2|\
AB^cd e2a2|a2^gf gab2|e^de^f ^gefg|a4 a2::
A^GAB cBc^c
%Error : Bar 13 is 7/4 not 4/4
|d^cde fedf|eE^GB edcB|cdcB
